img/hero/links/ball.svg

<svg width="20" height="20" viewBox="0 0 20 20" fill="none" xmlns="http://www.w3.org/2000/svg">
<path fill-rule="evenodd" clip-rule="evenodd" d="M10 0C4.47939 0 0 4.47939 0 10C0 15.5206 4.47939 20 10 20C15.5098 20 20 15.5206 20 10C20 4.47939 15.5098 0 10 0ZM16.6052 4.60954C17.7983 6.06291 18.5141 7.91756 18.5358 9.92406C18.2538 9.86987 15.4338 9.295 12.5922 9.65294C12.5271 9.51194 12.4729 9.36006 12.4078 9.20825C12.2343 8.79613 12.0391 8.37313 11.8438 7.97181C14.9891 6.692 16.4208 4.84816 16.6052 4.60954ZM10 1.47506C12.1692 1.47506 14.154 2.28851 15.6616 3.62256C15.5098 3.83948 14.2191 5.56399 11.1822 6.70281C9.78306 4.13232 8.23213 2.0282 7.9935 1.70282C8.63338 1.55098 9.30587 1.47506 10 1.47506ZM6.36662 2.27766C6.59438 2.58134 8.11281 4.69631 9.53362 7.21256C5.5423 8.2755 2.01736 8.25381 1.63774 8.25381C2.19089 5.60738 3.98048 3.40564 6.36662 2.27766ZM1.45336 10.0109C1.45336 9.92406 1.45336 9.83731 1.45336 9.75056C1.82212 9.76137 5.96529 9.81563 10.2277 8.53581C10.4773 9.013 10.705 9.50106 10.9219 9.98913C10.8134 10.0217 10.6941 10.0542 10.5857 10.0868C6.18221 11.5076 3.83948 15.3904 3.64425 15.7158C2.2885 14.2083 1.45336 12.2017 1.45336 10.0109ZM10 18.5466C8.026 18.5466 6.20391 17.8742 4.76139 16.7462C4.91323 16.4317 6.64856 13.0911 11.4642 11.41C11.4859 11.3991 11.4967 11.3991 11.5184 11.3883C12.7223 14.5011 13.2104 17.1149 13.3406 17.8633C12.3102 18.308 11.1822 18.5466 10 18.5466ZM14.7614 17.0824C14.6746 16.5618 14.2191 14.0672 13.1019 10.9978C15.7809 10.5748 18.1236 11.269 18.4165 11.3666C18.0478 13.7419 16.6811 15.7917 14.7614 17.0824Z" fill="white"/>
</svg>

<svg width="20" height="20" fill="none" xmlns="http://www.w3.org/2000/svg"><path fill-rule="evenodd" clip-rule="evenodd" d="M10 0C4.48 0 0 4.48 0 10s4.48 10 10 10c5.51 0 10-4.48 10-10S15.51 0 10 0Zm6.605 4.61a8.502 8.502 0 0 1 1.93 5.314c-.281-.054-3.101-.629-5.943-.271-.065-.141-.12-.293-.184-.445a25.322 25.322 0 0 0-.564-1.236c3.145-1.28 4.577-3.124 4.761-3.362ZM10 1.475c2.17 0 4.154.814 5.662 2.148-.152.216-1.443 1.941-4.48 3.08-1.399-2.57-2.95-4.675-3.189-5A8.686 8.686 0 0 1 10 1.475Zm-3.633.803a53.899 53.899 0 0 1 3.167 4.935c-3.992 1.062-7.517 1.04-7.896 1.04a8.581 8.581 0 0 1 4.729-5.975ZM1.453 10.01v-.26c.37.01 4.512.065 8.775-1.215.25.477.477.965.694 1.453-.109.033-.228.065-.336.098-4.404 1.42-6.747 5.303-6.942 5.629a8.521 8.521 0 0 1-2.19-5.705ZM10 18.547a8.482 8.482 0 0 1-5.239-1.8c.152-.315 1.888-3.656 6.703-5.337.022-.01.033-.01.054-.022a35.316 35.316 0 0 1 1.823 6.475 8.4 8.4 0 0 1-3.341.684Zm4.761-1.465c-.086-.52-.542-3.015-1.66-6.084 2.68-.423 5.023.271 5.315.369a8.468 8.468 0 0 1-3.655 5.715Z" fill="#fff"/></svg>
